16x16/apps/bcompare.svg

<svg xmlns="http://www.w3.org/2000/svg" width="16" height="16" version="1">
 <path style="fill:#4f4f4f" d="M 16,8 C 16,3.568 12.432,0 8,0 7.2068612,0 6.8266816,0.91987196 6.1043804,1.1329102 3.39947,1.930707 0.91464764,3.3080484 0.2343686,6.062266 0.08121836,6.6823192 0,7.331326 0,8 0,12.432 3.568,16 8,16 8.4071508,16 8.877062,15.269363 9.2675332,15.211236 12.205865,14.773824 14.542528,13.450512 15.524304,10.733571 15.832246,9.8813804 16,8.9610012 16,8 Z"/>
 <circle style="fill:#f4d6b6" cx="8" cy="8" r="5"/>
 <path style="fill:#fb4848" d="M 8 0 C 4.6727308 0 1.832284 2.0108915 0.62304688 4.8886719 L 3.4394531 5.9609375 A 5 5 0 0 1 8 3 L 8 0 z"/>
 <path style="fill:#fb4848" d="M 0.46204878,1.999863 A 0.46880974,0.46880974 0 0 0 0,2.4686257 V 6.5312373 A 0.46880974,0.46880974 0 0 0 0.46876285,7 H 4.5313743 a 0.46880974,0.46880974 0 0 0 0.33143,-0.8001927 L 0.80019282,2.1371959 A 0.46880974,0.46880974 0 0 0 0.46204878,1.999863 Z"/>
 <path style="fill:#486afb" d="M 12.560547 10.039062 A 5 5 0 0 1 8 13 L 8 16 C 11.327269 16 14.167716 13.989108 15.376953 11.111328 L 12.560547 10.039062 z"/>
 <path style="fill:#486afb" d="m 15.537784,13.999954 a 0.4687926,0.4687926 0 0 0 0.462032,-0.468746 V 9.4687455 A 0.4687926,0.4687926 0 0 0 15.531071,8.9999999 h -4.062463 a 0.4687926,0.4687926 0 0 0 -0.331418,0.800163 l 4.062463,4.0624631 a 0.4687926,0.4687926 0 0 0 0.338131,0.137328 z"/>
 <circle style="fill:#f4f4f7" cx="8" cy="8" r="2"/>
</svg>

<svg xmlns="http://www.w3.org/2000/svg" width="16" height="16" version="1"><path style="fill:#4f4f4f" d="M16 8c0-4.432-3.568-8-8-8-.793 0-1.173.92-1.896 1.133C3.4 1.93.914 3.308.234 6.063A8.072 8.072 0 0 0 0 8c0 4.432 3.568 8 8 8 .407 0 .877-.73 1.268-.789 2.938-.437 5.275-1.76 6.256-4.477A8.027 8.027 0 0 0 16 8z"/><circle style="fill:#f4d6b6" cx="8" cy="8" r="5"/><path style="fill:#fb4848" d="M8 0A7.983 7.983 0 0 0 .623 4.889L3.439 5.96A5 5 0 0 1 8 3V0z"/><path style="fill:#fb4848" d="M.462 2A.469.469 0 0 0 0 2.469V6.53A.469.469 0 0 0 .469 7H4.53a.469.469 0 0 0 .332-.8L.8 2.137A.469.469 0 0 0 .462 2z"/><path style="fill:#486afb" d="M12.56 10.04A5 5 0 0 1 8 13v3a7.983 7.983 0 0 0 7.377-4.889l-2.816-1.072z"/><path style="fill:#486afb" d="M15.538 14a.469.469 0 0 0 .462-.469V9.47A.469.469 0 0 0 15.53 9H11.47a.469.469 0 0 0-.332.8l4.063 4.063a.469.469 0 0 0 .338.137z"/><circle style="fill:#f4f4f7" cx="8" cy="8" r="2"/></svg>
